X:2
T:Waynesboro
M:C|
L:1/8
R:reel
F:http://www.ibiblio.org/fiddlers/WAT_WAZ.htm 2012-3-21
K:G
GFGA Bdef | gfga gedB | e [A3a3] abag | (3efg ab aged | efga bgag |
fage dcBG | BGAG FGDG |1 E G2A G2 DF :|2 E G2A [D4G4] |:
(3DEF GA BGAB | GBeB dBAG | E [E3A3] ABAG | (3EFG AB AGEG |
G,B,DF GABd | gbge dBAG | BGAG FGDG |1 E G2A [D4G4] :|2 EG2A [D2G2] DF ||
